shader_type canvas_item;

uniform float offset_x = 0.0;
uniform float stretch_y = 1.0;

uniform float center_distance: hint_range(20.0, 100.0, 0.1) = 50.0;

void vertex()
{
	VERTEX += vec2(offset_x, 0.0);
	VERTEX.y *= stretch_y * sin(TIME);
	VERTEX.y += VERTEX.x * sin(TIME);
	VERTEX.x += sin(TIME) * center_distance;
	VERTEX.y += cos(TIME) * center_distance;
}